X: 33995
T: Reel Around The Sun
R: reel
M: 4/4
K: Eminor
|:E2EE E2FE|GEAE GEFD|E2EE E2FE|GEAE B2de|
fgfe dBAd|BdAd BdAd|E2BE cEBE|AFDF E4:|
|:fdBd efge|fdBd ABde|fdBd efge|fdBd efga|
bec'e beae|bec'e beae|bagf gedB|AFEF D4:|

